src/lib/packages/icons/src/assets/line/face-surprise.svg

<svg xmlns="http://www.w3.org/2000/svg" width="24" height="24" fill="none"><path fill="currentColor" d="M12.02 22.75C6.09 22.75 1.27 17.93 1.27 12S6.09 1.25 12.02 1.25 22.77 6.07 22.77 12s-4.82 10.75-10.75 10.75Zm0-20c-5.1 0-9.25 4.15-9.25 9.25s4.15 9.25 9.25 9.25 9.25-4.15 9.25-9.25-4.15-9.25-9.25-9.25ZM16.25 10c0-1.01-.53-1.75-1.25-1.75s-1.25.74-1.25 1.75.53 1.75 1.25 1.75 1.25-.74 1.25-1.75Zm-6 0c0-1.01-.53-1.75-1.25-1.75S7.75 8.99 7.75 10s.53 1.75 1.25 1.75 1.25-.74 1.25-1.75ZM12 18.75c-1.52 0-2.75-1.23-2.75-2.75s1.23-2.75 2.75-2.75 2.75 1.23 2.75 2.75-1.23 2.75-2.75 2.75Zm0-4a1.25 1.25 0 1 0 0 2.5 1.25 1.25 0 0 0 0-2.5Z"/></svg>

<svg width="24" height="24" viewBox="0 0 24 24" fill="none" xmlns="http://www.w3.org/2000/svg">
<path d="M12.02 22.75C6.09002 22.75 1.27002 17.93 1.27002 12C1.27002 6.07 6.09002 1.25 12.02 1.25C17.95 1.25 22.77 6.07 22.77 12C22.77 17.93 17.95 22.75 12.02 22.75ZM12.02 2.75C6.92002 2.75 2.77002 6.9 2.77002 12C2.77002 17.1 6.92002 21.25 12.02 21.25C17.12 21.25 21.27 17.1 21.27 12C21.27 6.9 17.12 2.75 12.02 2.75ZM16.25 10C16.25 8.99 15.72 8.25 15 8.25C14.28 8.25 13.75 8.99 13.75 10C13.75 11.01 14.28 11.75 15 11.75C15.72 11.75 16.25 11.01 16.25 10ZM10.25 10C10.25 8.99 9.72 8.25 9 8.25C8.28 8.25 7.75 8.99 7.75 10C7.75 11.01 8.28 11.75 9 11.75C9.72 11.75 10.25 11.01 10.25 10ZM12 18.75C10.48 18.75 9.25 17.52 9.25 16C9.25 14.48 10.48 13.25 12 13.25C13.52 13.25 14.75 14.48 14.75 16C14.75 17.52 13.52 18.75 12 18.75ZM12 14.75C11.31 14.75 10.75 15.31 10.75 16C10.75 16.69 11.31 17.25 12 17.25C12.69 17.25 13.25 16.69 13.25 16C13.25 15.31 12.69 14.75 12 14.75Z" fill="currentColor"/>
</svg>
